assets/keaf-kash-wali.svg

<?xml version="1.0" encoding="UTF-8" standalone="no"?>
<!-- Created with Inkscape (http://www.inkscape.org/) -->

<svg
   width="25mm"
   height="25.000002mm"
   viewBox="0 0 25 25.000002"
   version="1.1"
   id="svg1"
   xmlns="http://www.w3.org/2000/svg"
   xmlns:svg="http://www.w3.org/2000/svg">
  <defs
     id="defs1">
    <clipPath
       clipPathUnits="userSpaceOnUse"
       id="clipPath264">
      <rect
         x="0.00072932942"
         y="0"
         width="2500"
         height="2500"
         id="rect264"
         style="stroke-width:1" />
    </clipPath>
    <clipPath
       clipPathUnits="userSpaceOnUse"
       id="clipPath347">
      <rect
         x="0.00072932942"
         y="0"
         width="2500"
         height="2500"
         id="rect347"
         style="stroke-width:1" />
    </clipPath>
    <clipPath
       clipPathUnits="userSpaceOnUse"
       id="clipPath348">
      <rect
         x="0.00072932942"
         y="0"
         width="2500"
         height="2500"
         id="rect348"
         style="stroke-width:1" />
    </clipPath>
    <clipPath
       clipPathUnits="userSpaceOnUse"
       id="clipPath349">
      <rect
         x="0.00072932942"
         y="0"
         width="2500"
         height="2500"
         id="rect349"
         style="stroke-width:1" />
    </clipPath>
    <clipPath
       clipPathUnits="userSpaceOnUse"
       id="clipPath350">
      <rect
         x="0.00072932942"
         y="0"
         width="2500"
         height="2500"
         id="rect350"
         style="stroke-width:1" />
    </clipPath>
  </defs>
  <g
     id="layer1"
     transform="translate(82.747285,-27.222924)">
    <g
       class="com.sun.star.drawing.LineShape"
       id="g13-49"
       style="fill:none;stroke:#000000;stroke-opacity:1"
       transform="matrix(0.01,0,0,0.01,-82.747289,27.222922)"
       clip-path="url(#clipPath350)">
      <g
         id="id3-81"
         style="fill:none;stroke:#000000;stroke-opacity:1">
        <rect
           class="BoundingBox"
           stroke="none"
           fill="none"
           x="443"
           y="117"
           width="101"
           height="2284"
           id="rect12-63"
           style="fill:none;stroke:#000000;stroke-opacity:1" />
        <path
           fill="none"
           stroke="#3465a4"
           stroke-width="100"
           stroke-linejoin="round"
           d="M 493,2350 V 167"
           id="path13-93"
           style="fill:none;stroke:#000000;stroke-opacity:1" />
      </g>
    </g>
    <g
       class="com.sun.star.drawing.LineShape"
       id="g14-3"
       style="fill:none;stroke:#000000;stroke-opacity:1"
       transform="matrix(0.01,0,0,0.01,-82.747289,27.222922)"
       clip-path="url(#clipPath349)">
      <g
         id="id4-46"
         style="fill:none;stroke:#000000;stroke-opacity:1">
        <rect
           class="BoundingBox"
           stroke="none"
           fill="none"
           x="1932"
           y="117"
           width="101"
           height="2284"
           id="rect13-15"
           style="fill:none;stroke:#000000;stroke-opacity:1" />
        <path
           fill="none"
           stroke="#3465a4"
           stroke-width="100"
           stroke-linejoin="round"
           d="M 1982,2350 V 167"
           id="path14-61"
           style="fill:none;stroke:#000000;stroke-opacity:1" />
      </g>
    </g>
    <g
       class="com.sun.star.drawing.LineShape"
       id="g15-7"
       style="fill:none;stroke:#000000;stroke-opacity:1"
       transform="matrix(0.01,0,0,0.01,-82.747289,27.222922)"
       clip-path="url(#clipPath348)">
      <g
         id="id5-22"
         style="fill:none;stroke:#000000;stroke-opacity:1">
        <rect
           class="BoundingBox"
           stroke="none"
           fill="none"
           x="443"
           y="117"
           width="1590"
           height="2284"
           id="rect14-92"
           style="fill:none;stroke:#000000;stroke-opacity:1" />
        <path
           fill="none"
           stroke="#3465a4"
           stroke-width="100"
           stroke-linejoin="round"
           d="M 1982,2350 493,167"
           id="path15-81"
           style="fill:none;stroke:#000000;stroke-opacity:1" />
      </g>
    </g>
    <g
       class="com.sun.star.drawing.CustomShape"
       id="g16-24"
       style="fill:none;stroke:#000000;stroke-opacity:1"
       transform="matrix(0.01,0,0,0.01,-82.747289,27.222922)"
       clip-path="url(#clipPath347)">
      <g
         id="id6-78"
         style="fill:none;stroke:#000000;stroke-opacity:1">
        <rect
           class="BoundingBox"
           stroke="none"
           fill="none"
           x="591"
           y="527"
           width="1303"
           height="1473"
           id="rect15-63"
           style="fill:none;stroke:#000000;stroke-opacity:1" />
        <path
           fill="none"
           stroke="#3465a4"
           stroke-width="100"
           stroke-linejoin="round"
           d="m 1843,1263 c 0,120 -28,239 -81,343 -52,104 -128,191 -219,251 -92,60 -196,92 -301,92 -105,0 -209,-32 -300,-92 -92,-60 -168,-147 -220,-251 -53,-104 -81,-223 -81,-343 0,-120 28,-239 81,-343 52,-104 128,-191 219,-251 92,-60 196,-92 301,-92 105,0 209,32 300,92 92,60 168,147 220,251 53,104 81,223 81,343 z"
           id="path16-7"
           style="fill:none;stroke:#000000;stroke-opacity:1" />
      </g>
    </g>
    <g
       id="id7-3"
       style="fill:none;stroke:#000000;stroke-opacity:1"
       transform="matrix(0.01,0,0,0.01,-82.747289,27.222922)"
       clip-path="url(#clipPath264)">
      <rect
         class="BoundingBox"
         stroke="none"
         fill="none"
         x="-50"
         y="-50"
         width="2601"
         height="2601"
         id="rect17-72"
         style="fill:none;stroke:#000000;stroke-opacity:1" />
      <path
         fill="none"
         stroke="#3465a4"
         stroke-width="100"
         stroke-linejoin="round"
         d="M 1250,0 H 2500 V 2500 H 0 V 0 Z"
         id="path17-5"
         style="fill:none;stroke:#000000;stroke-opacity:1" />
    </g>
  </g>
</svg>

<?xml version="1.0" encoding="UTF-8"?>
<!DOCTYPE svg PUBLIC "-//W3C//DTD SVG 1.1//EN" "http://www.w3.org/Graphics/SVG/1.1/DTD/svg11.dtd">
<svg version="1.2" width="25mm" height="25mm" viewBox="0 0 2500 2500" preserveAspectRatio="xMidYMid" fill-rule="evenodd" stroke-width="28.222" stroke-linejoin="round" xmlns="http://www.w3.org/2000/svg" xmlns:ooo="http://xml.openoffice.org/svg/export" xmlns:xlink="http://www.w3.org/1999/xlink" xmlns:presentation="http://sun.com/xmlns/staroffice/presentation" xmlns:smil="http://www.w3.org/2001/SMIL20/" xmlns:anim="urn:oasis:names:tc:opendocument:xmlns:animation:1.0" xmlns:svg="urn:oasis:names:tc:opendocument:xmlns:svg-compatible:1.0" xml:space="preserve">
 <defs class="ClipPathGroup">
  <clipPath id="presentation_clip_path" clipPathUnits="userSpaceOnUse">
   <rect x="0" y="0" width="2500" height="2500"/>
  </clipPath>
  <clipPath id="presentation_clip_path_shrink" clipPathUnits="userSpaceOnUse">
   <rect x="2" y="2" width="2495" height="2495"/>
  </clipPath>
 </defs>
 <defs class="TextShapeIndex">
  <g ooo:slide="id1" ooo:id-list="id3 id4 id5 id6 id7"/>
 </defs>
 <defs class="EmbeddedBulletChars">
  <g id="bullet-char-template-57356" transform="scale(0.00048828125,-0.00048828125)">
   <path d="M 580,1141 L 1163,571 580,0 -4,571 580,1141 Z"/>
  </g>
  <g id="bullet-char-template-57354" transform="scale(0.00048828125,-0.00048828125)">
   <path d="M 8,1128 L 1137,1128 1137,0 8,0 8,1128 Z"/>
  </g>
  <g id="bullet-char-template-10146" transform="scale(0.00048828125,-0.00048828125)">
   <path d="M 174,0 L 602,739 174,1481 1456,739 174,0 Z M 1358,739 L 309,1346 659,739 1358,739 Z"/>
  </g>
  <g id="bullet-char-template-10132" transform="scale(0.00048828125,-0.00048828125)">
   <path d="M 2015,739 L 1276,0 717,0 1260,543 174,543 174,936 1260,936 717,1481 1274,1481 2015,739 Z"/>
  </g>
  <g id="bullet-char-template-10007" transform="scale(0.00048828125,-0.00048828125)">
   <path d="M 0,-2 C -7,14 -16,27 -25,37 L 356,567 C 262,823 215,952 215,954 215,979 228,992 255,992 264,992 276,990 289,987 310,991 331,999 354,1012 L 381,999 492,748 772,1049 836,1024 860,1049 C 881,1039 901,1025 922,1006 886,937 835,863 770,784 769,783 710,716 594,584 L 774,223 C 774,196 753,168 711,139 L 727,119 C 717,90 699,76 672,76 641,76 570,178 457,381 L 164,-76 C 142,-110 111,-127 72,-127 30,-127 9,-110 8,-76 1,-67 -2,-52 -2,-32 -2,-23 -1,-13 0,-2 Z"/>
  </g>
  <g id="bullet-char-template-10004" transform="scale(0.00048828125,-0.00048828125)">
   <path d="M 285,-33 C 182,-33 111,30 74,156 52,228 41,333 41,471 41,549 55,616 82,672 116,743 169,778 240,778 293,778 328,747 346,684 L 369,508 C 377,444 397,411 428,410 L 1163,1116 C 1174,1127 1196,1133 1229,1133 1271,1133 1292,1118 1292,1087 L 1292,965 C 1292,929 1282,901 1262,881 L 442,47 C 390,-6 338,-33 285,-33 Z"/>
  </g>
  <g id="bullet-char-template-9679" transform="scale(0.00048828125,-0.00048828125)">
   <path d="M 813,0 C 632,0 489,54 383,161 276,268 223,411 223,592 223,773 276,916 383,1023 489,1130 632,1184 813,1184 992,1184 1136,1130 1245,1023 1353,916 1407,772 1407,592 1407,412 1353,268 1245,161 1136,54 992,0 813,0 Z"/>
  </g>
  <g id="bullet-char-template-8226" transform="scale(0.00048828125,-0.00048828125)">
   <path d="M 346,457 C 273,457 209,483 155,535 101,586 74,649 74,723 74,796 101,859 155,911 209,963 273,989 346,989 419,989 480,963 531,910 582,859 608,796 608,723 608,648 583,586 532,535 482,483 420,457 346,457 Z"/>
  </g>
  <g id="bullet-char-template-8211" transform="scale(0.00048828125,-0.00048828125)">
   <path d="M -4,459 L 1135,459 1135,606 -4,606 -4,459 Z"/>
  </g>
  <g id="bullet-char-template-61548" transform="scale(0.00048828125,-0.00048828125)">
   <path d="M 173,740 C 173,903 231,1043 346,1159 462,1274 601,1332 765,1332 928,1332 1067,1274 1183,1159 1299,1043 1357,903 1357,740 1357,577 1299,437 1183,322 1067,206 928,148 765,148 601,148 462,206 346,322 231,437 173,577 173,740 Z"/>
  </g>
 </defs>
 <g>
  <g id="id2" class="Master_Slide">
   <g id="bg-id2" class="Background"/>
   <g id="bo-id2" class="BackgroundObjects"/>
  </g>
 </g>
 <g class="SlideGroup">
  <g>
   <g id="container-id1">
    <g id="id1" class="Slide" clip-path="url(#presentation_clip_path)">
     <g class="Page">
      <g class="Group">
       <g class="Group">
        <g class="com.sun.star.drawing.LineShape">
         <g id="id3">
          <rect class="BoundingBox" stroke="none" fill="none" x="443" y="117" width="101" height="2284"/>
          <path fill="none" stroke="rgb(52,101,164)" stroke-width="100" stroke-linejoin="round" d="M 493,2350 L 493,167 "/>
         </g>
        </g>
        <g class="com.sun.star.drawing.LineShape">
         <g id="id4">
          <rect class="BoundingBox" stroke="none" fill="none" x="1932" y="117" width="101" height="2284"/>
          <path fill="none" stroke="rgb(52,101,164)" stroke-width="100" stroke-linejoin="round" d="M 1982,2350 L 1982,167 "/>
         </g>
        </g>
        <g class="com.sun.star.drawing.LineShape">
         <g id="id5">
          <rect class="BoundingBox" stroke="none" fill="none" x="443" y="117" width="1590" height="2284"/>
          <path fill="none" stroke="rgb(52,101,164)" stroke-width="100" stroke-linejoin="round" d="M 1982,2350 L 493,167 "/>
         </g>
        </g>
        <g class="com.sun.star.drawing.CustomShape">
         <g id="id6">
          <rect class="BoundingBox" stroke="none" fill="none" x="591" y="527" width="1303" height="1473"/>
          <path fill="none" stroke="rgb(52,101,164)" stroke-width="100" stroke-linejoin="round" d="M 1843,1263 C 1843,1383 1815,1502 1762,1606 1710,1710 1634,1797 1543,1857 1451,1917 1347,1949 1242,1949 1137,1949 1033,1917 942,1857 850,1797 774,1710 722,1606 669,1502 641,1383 641,1263 641,1143 669,1024 722,920 774,816 850,729 941,669 1033,609 1137,577 1242,577 1347,577 1451,609 1542,669 1634,729 1710,816 1762,920 1815,1024 1843,1143 1843,1263 L 1843,1263 Z "/>
         </g>
        </g>
       </g>
       <g class="com.sun.star.drawing.CustomShape">
        <g id="id7">
         <rect class="BoundingBox" stroke="none" fill="none" x="-50" y="-50" width="2601" height="2601"/>
         <path fill="none" stroke="rgb(52,101,164)" stroke-width="100" stroke-linejoin="round" d="M 1250,0 L 2500,0 2500,2500 0,2500 0,0 1250,0 Z "/>
        </g>
       </g>
      </g>
     </g>
    </g>
   </g>
  </g>
 </g>
</svg>
